X:2097 
T:Tar shiuish ghuillyn aegey tayrn shiu er gerrey 
C:Tom Kermode, Bradda
S:Traditional 
Z:Clague Collection
B:Kiaull Vannin #97 
M:4/4 
L:1/4
Q:80 
K:D 
A|d c d e|=f2 e d|c2 dB|A2 A A|d=f e d|A G A c|d3=f/g/|a2 g e|=f2 e d| 
d2 e c|A3 A|d=f e d|c B A A|=f2 g=f|e2 =f/g/|a d d d|c A=c ^c|d3|| 

